usr/share/icons/bigicons-papient-dark/symbolic/status/fcitx-handwriting-active.svg

<?xml version="1.0" encoding="UTF-8"?>
<svg xmlns="http://www.w3.org/2000/svg" xmlns:xlink="http://www.w3.org/1999/xlink" xmlns:cc="http://creativecommons.org/ns#" xmlns:dc="http://purl.org/dc/elements/1.1/" xmlns:rdf="http://www.w3.org/1999/02/22-rdf-syntax-ns#" xmlns:inkscape="http://www.inkscape.org/namespaces/inkscape" xmlns:sodipodi="http://sodipodi.sourceforge.net/DTD/sodipodi-0.dtd" width="22" height="22">
    <style type="text/css" id="current-color-scheme">
      .ColorScheme-Text {
        color:#dedede;
      }
      .ColorScheme-Background {
        color:#eff0f1;
      }
      .ColorScheme-Highlight {
        color:#3daee9;
      }
      .ColorScheme-ButtonText {
        color:#dedede;
      }
      </style>
    <g id="fcitx-handwriting-active" transform="translate(-198,-110)">
    <path class="ColorScheme-Text" style="fill:currentColor;fill-opacity:1;stroke:none" d="M 213.13672 112.56836 L 209.86523 124.77539 L 210.93555 128.51367 L 213.73047 125.81055 L 217 113.60352 L 216.51758 113.47266 L 213.13672 112.56836 z M 213.84375 113.79102 L 215.77539 114.30859 L 215.51562 115.27734 L 213.58398 114.75781 L 213.84375 113.79102 z M 213.32617 115.72461 L 215.25781 116.24219 L 212.83594 125.28516 L 211.43945 126.63672 L 210.9043 124.76758 L 213.32617 115.72461 z M 202.32227 119.45117 C 202.12908 119.45542 201.91662 119.47481 201.67773 119.50781 A 0.50078273 0.50078273 0 1 0 201.81445 120.5 C 202.23319 120.4422 202.52454 120.444 202.68555 120.4707 C 202.84655 120.4974 202.84968 120.52812 202.83789 120.51172 C 202.82609 120.49532 202.84403 120.50272 202.83203 120.60352 C 202.82063 120.70461 202.77383 120.86783 202.70703 121.05469 C 202.57339 121.42841 202.35575 121.87805 202.29688 122.38086 C 202.26747 122.63227 202.28198 122.92038 202.42969 123.1875 C 202.57742 123.45462 202.84925 123.65478 203.16797 123.76172 C 203.3205 123.81282 203.38126 123.80234 203.47656 123.80664 C 203.57186 123.81064 203.67731 123.8125 203.79297 123.8125 C 204.02428 123.81257 204.29652 123.80941 204.55078 123.81641 C 204.58278 123.81729 204.59751 123.82222 204.62891 123.82422 C 204.53821 123.87962 204.48332 123.92242 204.37695 123.98242 C 203.84414 124.28309 203.15898 124.62677 202.5957 125.00391 C 202.31407 125.19247 202.05958 125.38667 201.85938 125.625 C 201.65917 125.86333 201.48995 126.2011 201.57227 126.57422 C 201.65457 126.94734 201.94235 127.20603 202.30273 127.40039 C 202.66312 127.59475 203.13618 127.75197 203.7832 127.89844 C 204.83439 128.1364 206.14352 128.06689 207.32617 128.11914 C 208.50883 128.17144 209.49456 128.37936 209.87891 128.82227 A 0.50005 0.50005 0 1 0 210.63281 128.16602 C 209.87673 127.29474 208.61694 127.17419 207.37109 127.11914 C 206.12525 127.06404 204.82125 127.10884 204.00391 126.92383 C 203.40819 126.78897 203.00455 126.64402 202.77734 126.52148 C 202.55013 126.39894 202.54155 126.32639 202.54883 126.35938 C 202.55583 126.39238 202.5303 126.38223 202.625 126.26953 C 202.7197 126.15679 202.91174 125.99703 203.15234 125.83594 C 203.63355 125.51375 204.30372 125.17258 204.86914 124.85352 C 205.15185 124.69398 205.40754 124.54128 205.62109 124.375 C 205.83465 124.20872 206.087 124.04488 206.09766 123.62305 C 206.10366 123.37711 205.93339 123.15262 205.79297 123.05859 C 205.65255 122.96459 205.52552 122.92803 205.39648 122.89844 C 205.1384 122.83924 204.86027 122.82421 204.57812 122.81641 C 204.296 122.80841 204.01555 122.8125 203.79492 122.8125 C 203.68461 122.81247 203.58855 122.81166 203.52344 122.80859 C 203.49592 122.80733 203.47379 122.80359 203.45898 122.80078 C 203.47099 122.8053 203.47205 122.80771 203.48633 122.8125 C 203.43594 122.79559 203.43876 122.79694 203.45898 122.80078 C 203.3447 122.75773 203.31651 122.72446 203.30469 122.70312 C 203.29159 122.67952 203.27446 122.62262 203.28906 122.49805 C 203.31826 122.24888 203.49456 121.82289 203.64844 121.39258 C 203.72534 121.17742 203.79696 120.95654 203.82422 120.71484 C 203.85152 120.47314 203.83022 120.17951 203.64844 119.92773 C 203.46689 119.67596 203.17008 119.53754 202.84961 119.48438 C 202.68937 119.45777 202.51546 119.44692 202.32227 119.45117 z " id="path4530"/>
    <rect y="110.00002" x="198" height="22" width="22" id="rect4532" style="fill:none;fill-opacity:1;stroke:none;stroke-linecap:round;stroke-linejoin:miter"/>
    <rect style="fill:none;fill-opacity:1;stroke:none;stroke-linecap:round;stroke-linejoin:miter" id="rect4545" width="22" height="22" x="198" y="110.00002"/>
    <ellipse style="fill:#11d116;fill-opacity:1;stroke:none;stroke-linecap:round;stroke-linejoin:miter" id="path4601" cx="202.5" cy="114.50002" rx="2.5" ry="2.5000026"/>
  </g>
</svg>

<svg xmlns="http://www.w3.org/2000/svg" width="22" height="22">
<style id="current-color-scheme" type="text/css">
.ColorScheme-Text{color:#fcfcfc}
</style>
<g id="fcitx-handwriting-active" transform="translate(-198 -110)">
<path id="path4530" d="m213.137 112.568-3.272 12.207 1.07 3.739 2.795-2.703 3.27-12.207-.482-.131zm.707 1.223 1.931.518-.26.968-1.931-.52zm-.518 1.934 1.932.517-2.422 9.043-1.397 1.352-.535-1.87zm-11.004 3.726a6 6 0 0 0-.644.057.5.5 0 1 0 .136.992c.42-.058.71-.056.872-.03.16.027.164.058.152.042-.012-.017.006-.01-.006.092a2.3 2.3 0 0 1-.125.45c-.134.374-.351.824-.41 1.327-.03.251-.015.54.133.806.147.268.42.468.738.575.153.05.213.04.309.045q.142.005.316.005c.231 0 .504-.003.758.004.032.001.047.006.078.008-.09.056-.146.098-.252.158-.533.301-1.218.645-1.781 1.022-.282.188-.536.383-.737.621s-.37.576-.287.95c.083.372.37.631.73.825.361.195.834.352 1.481.498 1.051.238 2.36.169 3.543.221s2.169.26 2.553.703a.5.5 0 1 0 .754-.656c-.756-.871-2.016-.992-3.262-1.047s-2.55-.01-3.367-.195c-.596-.135-1-.28-1.227-.403-.227-.122-.235-.195-.228-.162s-.019.023.076-.09a2.8 2.8 0 0 1 .527-.433c.482-.322 1.152-.663 1.717-.982a6 6 0 0 0 .752-.479c.214-.166.466-.33.477-.752.006-.246-.165-.47-.305-.564a1.1 1.1 0 0 0-.397-.16 4.2 4.2 0 0 0-.818-.083c-.282-.008-.562-.004-.783-.004-.11 0-.206 0-.272-.003l-.064-.008c.012.004.013.007.027.011-.05-.016-.047-.015-.027-.011-.114-.043-.142-.077-.154-.098-.013-.023-.03-.08-.016-.205.03-.25.206-.675.36-1.105a3 3 0 0 0 .175-.678c.028-.242.006-.535-.176-.787-.181-.252-.478-.39-.798-.444a3 3 0 0 0-.528-.033" class="ColorScheme-Text" style="fill:currentColor;fill-opacity:1;stroke:none"/>
<path id="rect4532" d="M198 110h22v22h-22z" style="fill:none;fill-opacity:1;stroke:none;stroke-linecap:round;stroke-linejoin:miter"/>
<path id="rect4545" d="M198 110h22v22h-22z" style="fill:none;fill-opacity:1;stroke:none;stroke-linecap:round;stroke-linejoin:miter"/>
<circle id="path4601" cx="202.5" cy="114.5" r="2.5" style="fill:#11d116;fill-opacity:1;stroke:none;stroke-linecap:round;stroke-linejoin:miter"/>
</g>
</svg>
